sources/design/Outline/റ.svg

<svg:svg xmlns:cc="http://creativecommons.org/ns#" xmlns:dc="http://purl.org/dc/elements/1.1/" xmlns:inkscape="http://www.inkscape.org/namespaces/inkscape" xmlns:rdf="http://www.w3.org/1999/02/22-rdf-syntax-ns#" xmlns:sodipodi="http://sodipodi.sourceforge.net/DTD/sodipodi-0.dtd" xmlns:svg="http://www.w3.org/2000/svg" xml:space="preserve" width="1000" height="1000" version="1.1" style="clip-rule:evenodd;fill-rule:evenodd;image-rendering:optimizeQuality;shape-rendering:geometricPrecision;text-rendering:geometricPrecision" viewBox="0 0 1000 1000" id="svg10" sodipodi:docname="റ.svg" inkscape:version="1.1.1 (3bf5ae0d25, 2021-09-20)"><svg:text text-anchor="middle" x="370.81696" y="775.3078" id="bottom" inkscape:label="bottom" style="clip-rule:evenodd;fill-rule:evenodd;image-rendering:optimizeQuality;shape-rendering:geometricPrecision;text-rendering:geometricPrecision">✛</svg:text><svg:metadata id="metadata14"><rdf:RDF><cc:Work rdf:about=""><dc:format>image/svg+xml</dc:format><dc:type rdf:resource="http://purl.org/dc/dcmitype/StillImage" /></cc:Work></rdf:RDF></svg:metadata><sodipodi:namedview pagecolor="#ffffff" bordercolor="#666666" borderopacity="1" objecttolerance="10" gridtolerance="10" guidetolerance="10" inkscape:pageopacity="0" inkscape:pageshadow="2" inkscape:window-width="1920" inkscape:window-height="1009" id="namedview12" showgrid="false" inkscape:zoom="0.79682018" inkscape:cx="400.96876" inkscape:cy="559.72478" inkscape:window-x="0" inkscape:window-y="0" inkscape:window-maximized="1" inkscape:current-layer="svg10" showguides="true" inkscape:guide-bbox="true" inkscape:document-rotation="0" inkscape:snap-object-midpoints="false" inkscape:snap-page="false" inkscape:pagecheckerboard="0"><sodipodi:guide position="0,1000" orientation="0,1" id="guide16" inkscape:label="" inkscape:locked="true" inkscape:color="rgb(0,0,255)" /><sodipodi:guide position="1763.3122,2036.1693" orientation="1000,0" id="guide18" /><sodipodi:guide position="0,200" orientation="0,1" id="guide20" inkscape:label="base" inkscape:locked="true" inkscape:color="rgb(0,0,255)" /><inkscape:grid type="xygrid" id="grid24" originx="-473.37552" originy="-489.69235" /><sodipodi:guide position="0,0" orientation="0,1" id="guide34" inkscape:label="bottom" inkscape:locked="true" inkscape:color="rgb(0,0,255)" /><sodipodi:guide position="225.05109,1693.3186" orientation="0,1" id="guide44" inkscape:label="" inkscape:locked="false" inkscape:color="rgb(0,0,255)" /><sodipodi:guide position="0,900" orientation="0,1" id="guide46" inkscape:label="" inkscape:locked="true" inkscape:color="rgb(0,0,255)" /><sodipodi:guide position="448.11018,1019.0787" orientation="-1,0" id="guide841" inkscape:label="width" inkscape:locked="false" inkscape:color="rgb(0,0,255)" /><sodipodi:guide position="0,1000" orientation="0,1000" id="guide860" /><sodipodi:guide position="1000,1000" orientation="1000,0" id="guide862" /><sodipodi:guide position="1000,0" orientation="0,-1000" id="guide864" /><sodipodi:guide position="0,0" orientation="-1000,0" id="guide866" /></sodipodi:namedview>
 <svg:defs id="defs4"><inkscape:path-effect effect="fillet_chamfer" id="path-effect855" is_visible="true" lpeversion="1" satellites_param="F,0,1,1,0,13.370524,0,1 @ F,0,0,1,0,0,0,1 @ F,0,0,1,0,0,0,1 @ F,0,0,1,0,0,0,1 @ F,0,0,1,0,0,0,1 @ F,0,0,1,0,0,0,1 @ F,0,0,1,0,0,0,1 @ F,0,0,1,0,0,0,1 @ F,0,0,1,0,0,0,1 @ F,0,0,1,0,0,0,1 @ F,0,0,1,0,0,0,1 @ F,0,0,1,0,23.864345,0,1 @ F,0,0,1,0,23.864345,0,1 @ F,0,0,1,0,0,0,1 @ F,0,0,1,0,0,0,1 @ F,0,0,1,0,0,0,1 @ F,0,0,1,0,0,0,1 @ F,0,0,1,0,0,0,1 @ F,0,0,1,0,0,0,1 @ F,0,0,1,0,0,0,1 @ F,0,0,1,0,0,0,1 @ F,0,0,1,0,0,0,1 @ F,0,0,1,0,0,0,1 @ F,0,0,1,0,23.864345,0,1" unit="px" method="auto" mode="F" radius="0" chamfer_steps="1" flexible="false" use_knot_distance="true" apply_no_radius="true" apply_with_radius="true" only_selected="true" hide_knots="false" /><inkscape:path-effect effect="fillet_chamfer" id="path-effect853" is_visible="true" lpeversion="1" satellites_param="F,0,0,1,0,22.017653,0,1 @ F,0,0,1,0,0,0,1 @ F,0,0,1,0,0,0,1 @ F,0,0,1,0,0,0,1 @ F,0,0,1,0,0,0,1 @ F,0,0,1,0,0,0,1 @ F,0,0,1,0,0,0,1 @ F,0,0,1,0,0,0,1 @ F,0,0,1,0,0,0,1 @ F,0,0,1,0,0,0,1 @ F,0,0,1,0,0,0,1 @ F,0,0,1,0,20.052445,0,1 @ F,0,0,1,0,15.393607,0,1 @ F,0,0,1,0,0,0,1 @ F,0,0,1,0,0,0,1 @ F,0,0,1,0,0,0,1 @ F,0,0,1,0,0,0,1 @ F,0,0,1,0,0,0,1 @ F,0,0,1,0,0,0,1 @ F,0,0,1,0,0,0,1 @ F,0,0,1,0,0,0,1 @ F,0,0,1,0,0,0,1 @ F,0,0,1,0,0,0,1 @ F,0,0,1,0,22.347002,0,1" unit="px" method="auto" mode="F" radius="0" chamfer_steps="1" flexible="false" use_knot_distance="true" apply_no_radius="true" apply_with_radius="true" only_selected="true" hide_knots="false" /><inkscape:path-effect effect="spiro" id="path-effect858" is_visible="true" lpeversion="1" /><inkscape:path-effect effect="spiro" id="path-effect854" is_visible="true" lpeversion="1" />
  <svg:style type="text/css" id="style2">
   
    .fil0 {fill:#EF7F1A;fill-rule:nonzero}
   
  </svg:style>
 <inkscape:path-effect effect="spiro" id="path-effect1214" is_visible="true" lpeversion="1" /><inkscape:path-effect effect="spiro" id="path-effect1195" is_visible="true" lpeversion="1" /><inkscape:path-effect effect="spiro" id="path-effect992" is_visible="true" lpeversion="1" /><inkscape:path-effect effect="spiro" id="path-effect287" is_visible="true" lpeversion="1" /><inkscape:path-effect effect="spiro" id="path-effect1032" is_visible="true" lpeversion="1" /><inkscape:path-effect effect="spiro" id="path-effect1218" is_visible="true" lpeversion="1" /><inkscape:path-effect effect="spiro" id="path-effect309" is_visible="true" lpeversion="1" /><inkscape:path-effect effect="spiro" id="path-effect1525" is_visible="true" lpeversion="1" /></svg:defs>
 
<svg:g id="path933-8"><svg:path style="color:#000000;clip-rule:nonzero;fill:#1a5fb4;fill-rule:nonzero;stroke-linecap:round;stroke-linejoin:round;-inkscape-stroke:none;paint-order:fill stroke markers;shape-rendering:auto" d="M 229.09961,54.978516 C 193.9172,55.507998 159.02631,64.109019 127.57422,80.113281 C 61.902442,113.53009 16.885881,175.78289 -4.8164062,243.16797 C -30.261991,322.1759 -25.056148,404.27546 -16.419922,480.57617 C -9.4755974,541.929 0.00662183,602.61881 9.8964844,662.87109 C 17.57834,709.67147 25.062886,754.83322 24.111328,798.33594 C 23.470883,827.6154 19.036008000000002,856.85694 10.980469000000001,885.02539 C 8.0551036,895.2547500000001 8.534390100000001,910.225 18.46875,921.48242 C 28.403109999999998,932.73985 43.764123999999995,935.1271300000001 54.410156,933.20312 L 192.47461,908.25195 C 206.79349000000002,905.66417 220.16916,896.74612 227.38477,883.90039 C 234.60037,871.05466 235.25650000000002,855.0021800000001 230.02344,841.42969 C 215.57753,803.96275 201.18858,766.47387 186.85742,728.96289 C 166.01419,674.40695 145.7604,620.77526 132.79297,566.41797 C 118.59833,506.91643 113.10396,445.6997 121.51758,386.98437 C 125.47142,359.39206 132.57859,333.5165 145.15039,312.55664 C 157.48452999999998,291.99302 176.2695,275.73131 196.20898,269.97852 C 210.15077,265.95613000000003 226.3353,266.46999 241.20898,271.21289 C 256.20409,275.99451 270.56235,285.112 282.52344,296.99609000000004 C 303.85314,318.18851000000006 317.84227,348.37530000000004 323.77148,380.41602 C 329.74425,412.69204 328.1529,447.39221 322.62891,482.39844 C 313.09913,542.7898299999999 292.70557,601.73978 264.53125,656.8828100000001 C 254.82173,675.8863600000001 244.20652,694.4302500000001 232.73633,712.4277300000001 C 225.29500000000002,724.1036600000001 221.77002000000002,740.5656000000001 227.9043,755.4707000000001 C 234.03857,770.3758100000001 248.56795,779.8059200000001 262.33008,782.58203 L 391.75,808.68945 C 404.90444,811.34298 422.99327,808.99574 434.5,795.66602 C 446.00673,782.33629 445.81507,765.05204 441.89844,752.51172 C 430.27589,715.29849 424.73949,676.1132 425.6543,637.16797 C 426.86800999999997,585.49752 439.57678,532.38522 451.19921999999997,476.93944999999997 C 464.74607,412.31314999999995 476.75687,343.04107999999997 465.86913999999996,272.31640999999996 C 457.12408,215.51012 432.85106,159.08405 389.30664,117.55078 C 355.08688,84.911507 310.9839,63.734278 264.26367,57.164062 C 252.5878,55.522097 240.82708,54.802022 229.09961,54.978516 M 230.03906,115.00586 C 238.71129000000002,114.86189 247.37225,115.37968 255.90820000000002,116.58008 C 290.03528,121.37933 323.03591,137.25630999999998 347.89453000000003,160.96679999999998 C 379.67011,191.27477999999996 399.47616000000005,235.37570999999997 406.56836000000004,281.44530999999995 C 415.51425000000006,339.55616 405.67094000000003,401.67671999999993 392.47461000000004,464.63086 C 381.11979,518.7999 367.08625000000006,575.46201 365.66992000000005,635.75781 C 364.80933000000005,672.39514 368.89715000000007,709.05261 377.55859000000004,744.6171899999999 L 293.60352,727.6816399999999 C 302.15496,713.4269499999999 310.3971,698.9875999999999 317.96094,684.1835899999999 C 348.67559,624.0685999999998 371.25169999999997,559.2073899999998 381.89648,491.7499999999999 C 388.08027,452.5625599999999 390.46434,411.07979999999986 382.76953,369.4980499999999 C 375.03117,327.68098999999995 356.76601999999997,286.17948999999993 324.8125,254.4316399999999 C 306.80821,236.5432299999999 284.68709,222.10037999999992 259.4375,214.0488299999999 C 234.06649,205.9585499999999 206.2222,204.6429199999999 179.57812,212.3300799999999 C 141.5179,223.3109399999999 112.41340000000001,250.48959999999988 93.69726600000001,281.69335999999987 C 75.21880100000001,312.5008799999999 66.73375600000001,346.31189999999987 62.125000000000014,378.47460999999987 C 52.36800800000002,446.5648399999999 58.900793000000014,515.2371499999999 74.43164100000001,580.3398399999999 C 88.59089500000002,639.6930499999999 109.93059000000002,695.7280399999999 130.80859,750.3749999999999 C 143.68377,784.07504 156.62218000000001,817.7514599999998 169.58984,851.4160199999999 L 76.48828100000001,868.2421899999999 C 80.92003700000001,845.63928 83.59161600000002,822.6939699999999 84.09570300000001,799.6484399999999 C 85.213636,748.53951 76.749899,699.73661 69.103516,653.15234 C 59.264478,593.2097 49.95394,533.50581 43.199219,473.82812 C 34.827436,399.86376 31.381554,326.49605 52.294922,261.56055 C 69.81969,207.14656 106.41236,158.20218 154.78516,133.58789 C 177.90627999999998,121.82280999999999 204.02238999999997,115.43775999999998 230.03906,115.00585999999998 L 230.03906,115.00586" id="path2242" /></svg:g></svg:svg>

<svg:svg xmlns:cc="http://creativecommons.org/ns#" xmlns:dc="http://purl.org/dc/elements/1.1/" xmlns:inkscape="http://www.inkscape.org/namespaces/inkscape" xmlns:rdf="http://www.w3.org/1999/02/22-rdf-syntax-ns#" xmlns:sodipodi="http://sodipodi.sourceforge.net/DTD/sodipodi-0.dtd" xmlns:svg="http://www.w3.org/2000/svg" xml:space="preserve" width="1000" height="1000" version="1.1" style="clip-rule:evenodd;fill-rule:evenodd;image-rendering:optimizeQuality;shape-rendering:geometricPrecision;text-rendering:geometricPrecision" viewBox="0 0 1000 1000" id="svg10" sodipodi:docname="റ.svg" inkscape:version="1.1.1 (3bf5ae0d25, 2021-09-20)"><svg:text text-anchor="middle" x="370.81696" y="775.3078" id="bottom" inkscape:label="bottom" style="clip-rule:evenodd;fill-rule:evenodd;image-rendering:optimizeQuality;shape-rendering:geometricPrecision;text-rendering:geometricPrecision">✛</svg:text><svg:metadata id="metadata14"><rdf:RDF><cc:Work rdf:about=""><dc:format>image/svg+xml</dc:format><dc:type rdf:resource="http://purl.org/dc/dcmitype/StillImage" /></cc:Work></rdf:RDF></svg:metadata><sodipodi:namedview pagecolor="#ffffff" bordercolor="#666666" borderopacity="1" objecttolerance="10" gridtolerance="10" guidetolerance="10" inkscape:pageopacity="0" inkscape:pageshadow="2" inkscape:window-width="1920" inkscape:window-height="1009" id="namedview12" showgrid="false" inkscape:zoom="0.79682018" inkscape:cx="400.96876" inkscape:cy="559.72478" inkscape:window-x="0" inkscape:window-y="0" inkscape:window-maximized="1" inkscape:current-layer="svg10" showguides="true" inkscape:guide-bbox="true" inkscape:document-rotation="0" inkscape:snap-object-midpoints="false" inkscape:snap-page="false" inkscape:pagecheckerboard="0"><sodipodi:guide position="0,1000" orientation="0,1" id="guide16" inkscape:label="" inkscape:locked="true" inkscape:color="rgb(0,0,255)" /><sodipodi:guide position="1763.3122,2036.1693" orientation="1000,0" id="guide18" /><sodipodi:guide position="0,200" orientation="0,1" id="guide20" inkscape:label="base" inkscape:locked="true" inkscape:color="rgb(0,0,255)" /><inkscape:grid type="xygrid" id="grid24" originx="-473.37552" originy="-489.69235" /><sodipodi:guide position="0,0" orientation="0,1" id="guide34" inkscape:label="bottom" inkscape:locked="true" inkscape:color="rgb(0,0,255)" /><sodipodi:guide position="225.05109,1693.3186" orientation="0,1" id="guide44" inkscape:label="" inkscape:locked="false" inkscape:color="rgb(0,0,255)" /><sodipodi:guide position="0,900" orientation="0,1" id="guide46" inkscape:label="" inkscape:locked="true" inkscape:color="rgb(0,0,255)" /><sodipodi:guide position="448.11018,1019.0787" orientation="-1,0" id="guide841" inkscape:label="width" inkscape:locked="false" inkscape:color="rgb(0,0,255)" /><sodipodi:guide position="0,1000" orientation="0,1000" id="guide860" /><sodipodi:guide position="1000,1000" orientation="1000,0" id="guide862" /><sodipodi:guide position="1000,0" orientation="0,-1000" id="guide864" /><sodipodi:guide position="0,0" orientation="-1000,0" id="guide866" /></sodipodi:namedview>
 <svg:defs id="defs4"><inkscape:path-effect effect="fillet_chamfer" id="path-effect855" is_visible="true" lpeversion="1" satellites_param="F,0,1,1,0,13.370524,0,1 @ F,0,0,1,0,0,0,1 @ F,0,0,1,0,0,0,1 @ F,0,0,1,0,0,0,1 @ F,0,0,1,0,0,0,1 @ F,0,0,1,0,0,0,1 @ F,0,0,1,0,0,0,1 @ F,0,0,1,0,0,0,1 @ F,0,0,1,0,0,0,1 @ F,0,0,1,0,0,0,1 @ F,0,0,1,0,0,0,1 @ F,0,0,1,0,23.864345,0,1 @ F,0,0,1,0,23.864345,0,1 @ F,0,0,1,0,0,0,1 @ F,0,0,1,0,0,0,1 @ F,0,0,1,0,0,0,1 @ F,0,0,1,0,0,0,1 @ F,0,0,1,0,0,0,1 @ F,0,0,1,0,0,0,1 @ F,0,0,1,0,0,0,1 @ F,0,0,1,0,0,0,1 @ F,0,0,1,0,0,0,1 @ F,0,0,1,0,0,0,1 @ F,0,0,1,0,23.864345,0,1" unit="px" method="auto" mode="F" radius="0" chamfer_steps="1" flexible="false" use_knot_distance="true" apply_no_radius="true" apply_with_radius="true" only_selected="true" hide_knots="false" /><inkscape:path-effect effect="fillet_chamfer" id="path-effect853" is_visible="true" lpeversion="1" satellites_param="F,0,0,1,0,22.017653,0,1 @ F,0,0,1,0,0,0,1 @ F,0,0,1,0,0,0,1 @ F,0,0,1,0,0,0,1 @ F,0,0,1,0,0,0,1 @ F,0,0,1,0,0,0,1 @ F,0,0,1,0,0,0,1 @ F,0,0,1,0,0,0,1 @ F,0,0,1,0,0,0,1 @ F,0,0,1,0,0,0,1 @ F,0,0,1,0,0,0,1 @ F,0,0,1,0,20.052445,0,1 @ F,0,0,1,0,15.393607,0,1 @ F,0,0,1,0,0,0,1 @ F,0,0,1,0,0,0,1 @ F,0,0,1,0,0,0,1 @ F,0,0,1,0,0,0,1 @ F,0,0,1,0,0,0,1 @ F,0,0,1,0,0,0,1 @ F,0,0,1,0,0,0,1 @ F,0,0,1,0,0,0,1 @ F,0,0,1,0,0,0,1 @ F,0,0,1,0,0,0,1 @ F,0,0,1,0,22.347002,0,1" unit="px" method="auto" mode="F" radius="0" chamfer_steps="1" flexible="false" use_knot_distance="true" apply_no_radius="true" apply_with_radius="true" only_selected="true" hide_knots="false" /><inkscape:path-effect effect="spiro" id="path-effect858" is_visible="true" lpeversion="1" /><inkscape:path-effect effect="spiro" id="path-effect854" is_visible="true" lpeversion="1" />
  <svg:style type="text/css" id="style2">
   
    .fil0 {fill:#EF7F1A;fill-rule:nonzero}
   
  </svg:style>
 <inkscape:path-effect effect="spiro" id="path-effect1214" is_visible="true" lpeversion="1" /><inkscape:path-effect effect="spiro" id="path-effect1195" is_visible="true" lpeversion="1" /><inkscape:path-effect effect="spiro" id="path-effect992" is_visible="true" lpeversion="1" /><inkscape:path-effect effect="spiro" id="path-effect287" is_visible="true" lpeversion="1" /><inkscape:path-effect effect="spiro" id="path-effect1032" is_visible="true" lpeversion="1" /><inkscape:path-effect effect="spiro" id="path-effect1218" is_visible="true" lpeversion="1" /><inkscape:path-effect effect="spiro" id="path-effect309" is_visible="true" lpeversion="1" /><inkscape:path-effect effect="spiro" id="path-effect1525" is_visible="true" lpeversion="1" /></svg:defs>
 
<svg:g id="path933-8"><svg:path style="color:#000000;clip-rule:nonzero;fill:#1a5fb4;fill-rule:nonzero;stroke-linecap:round;stroke-linejoin:round;-inkscape-stroke:none;shape-rendering:auto" d="M 229.09961,54.978516 C 193.9172,55.507998 159.02631,64.109019 127.57422,80.113281 61.902442,113.53009 16.885881,175.78289 -4.8164062,243.16797 -30.261991,322.1759 -25.056148,404.27546 -16.419922,480.57617 -9.4755974,541.929 0.00662183,602.61881 9.8964844,662.87109 17.57834,709.67147 25.062886,754.83322 24.111328,798.33594 c -0.640445,29.27946 -5.07532,58.521 -13.130859,86.68945 -2.9253654,10.22936 -2.4460789,25.19961 7.488281,36.45703 9.93436,11.25743 25.295374,13.64471 35.941406,11.7207 L 192.47461,908.25195 c 14.31888,-2.58778 27.69455,-11.50583 34.91016,-24.35156 7.2156,-12.84573 7.87173,-28.89821 2.63867,-42.4707 C 215.57753,803.96275 201.18858,766.47387 186.85742,728.96289 166.01419,674.40695 145.7604,620.77526 132.79297,566.41797 118.59833,506.91643 113.10396,445.6997 121.51758,386.98437 c 3.95384,-27.59231 11.06101,-53.46787 23.63281,-74.42773 12.33414,-20.56362 31.11911,-36.82533 51.05859,-42.57812 13.94179,-4.02239 30.12632,-3.50853 45,1.23437 14.99511,4.78162 29.35337,13.89911 41.31446,25.7832 21.3297,21.19242 35.31883,51.37921 41.24804,83.41993 5.97277,32.27602 4.38142,66.97619 -1.14257,101.98242 -9.52978,60.39139 -29.92334,119.34134 -58.09766,174.48437 -9.70952,19.00355 -20.32473,37.54744 -31.79492,55.54492 -7.44133,11.67593 -10.96631,28.13787 -4.83203,43.04297 6.13427,14.90511 20.66365,24.33522 34.42578,27.11133 L 391.75,808.68945 c 13.15444,2.65353 31.24327,0.30629 42.75,-13.02343 11.50673,-13.32973 11.31507,-30.61398 7.39844,-43.1543 -11.62255,-37.21323 -17.15895,-76.39852 -16.24414,-115.34375 1.21371,-51.67045 13.92248,-104.78275 25.54492,-160.22852 13.54685,-64.6263 25.55765,-133.89837 14.66992,-204.62304 C 457.12408,215.51012 432.85106,159.08405 389.30664,117.55078 355.08688,84.911507 310.9839,63.734278 264.26367,57.164062 252.5878,55.522097 240.82708,54.802022 229.09961,54.978516 Z m 0.93945,60.027344 c 8.67223,-0.14397 17.33319,0.37382 25.86914,1.57422 34.12708,4.79925 67.12771,20.67623 91.98633,44.38672 31.77558,30.30798 51.58163,74.40891 58.67383,120.47851 8.94589,58.11085 -0.89742,120.23141 -14.09375,183.18555 -11.35482,54.16904 -25.38836,110.83115 -26.80469,171.12695 -0.86059,36.63733 3.22723,73.2948 11.88867,108.85938 l -83.95507,-16.93555 c 8.55144,-14.25469 16.79358,-28.69404 24.35742,-43.49805 30.71465,-60.11499 53.29076,-124.9762 63.93554,-192.43359 6.18379,-39.18744 8.56786,-80.6702 0.87305,-122.25195 -7.73836,-41.81706 -26.00351,-83.31856 -57.95703,-115.06641 -18.00429,-17.88841 -40.12541,-32.33126 -65.375,-40.38281 -25.37101,-8.09028 -53.2153,-9.40591 -79.85938,-1.71875 -38.06022,10.98086 -67.16472,38.15952 -85.880854,69.36328 -18.478465,30.80752 -26.96351,64.61854 -31.572266,96.78125 -9.756992,68.09023 -3.224207,136.76254 12.306641,201.86523 14.159254,59.35321 35.498949,115.3882 56.376949,170.03516 12.87518,33.70004 25.81359,67.37646 38.78125,101.04102 l -93.101559,16.82617 c 4.431756,-22.60291 7.103335,-45.54822 7.607422,-68.59375 C 85.213636,748.53951 76.749899,699.73661 69.103516,653.15234 59.264478,593.2097 49.95394,533.50581 43.199219,473.82812 34.827436,399.86376 31.381554,326.49605 52.294922,261.56055 69.81969,207.14656 106.41236,158.20218 154.78516,133.58789 c 23.12112,-11.76508 49.23723,-18.15013 75.2539,-18.58203 z" id="path2242" /></svg:g></svg:svg>
